X: 879
T: The teetotaler's fancy
C: anon.
O: Ireland
B: Francis O'Neill: "The Dance Music of Ireland" (1907) no. 795
R: Reel
Z: Transcribed by Frank Nordberg - http://www.musicaviva.com
F: http://www.musicaviva.com/abc/tunes/ireland/oneill-1001/oneill-1001-079
5.abc
m: Tn3 = n(3n/o/n/ m/n/
M: C|
L: 1/8
K: G
G2(GF) GAB(c|d2)g(e dBA)c|BEE(D EFG)A|BGA(F GF)ED|G2 (GF) GAB(c|dB)g(e dB
A)c|BEE(D E)FG(A|Bc)AF G2 (GA)||
(Beed) e3(f|gf)(af gf)ed|B(ddc) Td3e|fga(f gf)ed|B(eed) e3(f|gf)a(f gf)ed
|efed BA (3Bcd|ega(f ged)B|]
W:
W:
W: From Musica Viva - http://www.musicaviva.com
W: the Internet center for free sheet music downloads.


